build-source/logos/prosiebenmaxx.light.svg

<svg xmlns="http://www.w3.org/2000/svg" viewBox="0 0 437 78"><path d="m0 0v21h77v-21h-77m89 0v7l45 71h46l-51-78h-40m63 0l-9 16 41 62h3v-78h-35m50 0l51 78h43l-49-78h-45m65 0l50 78h47l-50-78h-47m62 0l-6 9 18 29 28-38h-40m53 0l-25 34 28 44h47l-50-78m15 0l-6 9 18 29 28-38h-40m-196 4v73.969l28 .031 11-15-39-59m-112 8v66h41l-41-66m-17.313 13.813c-35.643.342-65.02 32.17-71.69 52.19h77v-52c-1.781-.141-3.56-.204-5.313-.188m223.31 22.19l-8 11 12 19h15l-19-30m68 0l-8 11 12 19h15l-19-30" fill="#fff"/></svg>

<?xml version="1.0" encoding="UTF-8" standalone="no"?>
<!-- Created with Inkscape (http://www.inkscape.org/) -->

<svg
   xmlns:dc="http://purl.org/dc/elements/1.1/"
   xmlns:cc="http://creativecommons.org/ns#"
   xmlns:rdf="http://www.w3.org/1999/02/22-rdf-syntax-ns#"
   xmlns:svg="http://www.w3.org/2000/svg"
   xmlns="http://www.w3.org/2000/svg"
   version="1.1"
   width="437"
   height="78"
   id="svg3321">
  <metadata
     id="metadata3328">
    <rdf:RDF>
      <cc:Work
         rdf:about="">
        <dc:format>image/svg+xml</dc:format>
        <dc:type
           rdf:resource="http://purl.org/dc/dcmitype/StillImage" />
        <dc:title></dc:title>
      </cc:Work>
    </rdf:RDF>
  </metadata>
  <defs
     id="defs3326" />
  <path
     d="M 0,0 0,21 77,21 77,0 0,0 z m 89,0 0,7 45,71 46,0 L 129,0 89,0 z m 63,0 -9,16 41,62 3,0 0,-78 -35,0 z m 50,0 51,78 43,0 -49,-78 -45,0 z m 65,0 50,78 47,0 -50,-78 -47,0 z m 62,0 -6,9 18,29 28,-38 -40,0 z m 53,0 -25,34 28,44 47,0 -50,-78 z m 15,0 -6,9 18,29 28,-38 -40,0 z M 201,4 201,77.96875 229,78 240,63 201,4 z M 89,12 89,78 130,78 89,12 z M 71.6875,25.8125 C 36.044674,26.154564 6.671875,57.984375 0,78 l 77,0 0,-52 C 75.21875,25.859375 73.440426,25.795677 71.6875,25.8125 z M 295,48 l -8,11 12,19 15,0 -19,-30 z m 68,0 -8,11 12,19 15,0 -19,-30 z"
     id="rect2892"
     style="fill:#ffffff;stroke:none" />
</svg>
